X: 78
T: Hayfield House Reel
T: Reel, A
C: Ronnie Cooper
L: 1/16
M: C|
K: A
|: c2B2| A4E2A2 c4A2c2| e2a2g2f2 e2d2c2A2| B2B2 BBB2 B2d2c2A2| B2B2G2B2 d2B2G2B2|
 A4E2A2 c4A2c2| e2a2g2f2 e2d2c2A2| B2B2 BBB2 B2d2c2A2| B2B2G2B2 A4:| 
|: c2d2| e2e2c2e2 a4g2f2| e2a2g2f2 e2d2c2A2| B2B2 BBB2 B2d2c2A2| B2B2G2B2 d4c2d2| 
[1 e4c2e2 a4g2f2| e2a2g2f2 e2d2c2A2| B2B2 BBB2 B2d2c2A2| B2B2G2B2 A4:|
[2 A4E2A2 c4A2c2| e2a2g2f2 e2d2c2A2| B2B2 BBB2 B2d2c2A2| B2B2G2B2 A4 |]
D: Kinnon and Betty Beaton, Saturday Night Lively, KB20M98
